src/activities/advanced_colors/advanced_colors.svg

<?xml version="1.0" encoding="UTF-8" standalone="no"?>
<!-- Created with Inkscape (http://www.inkscape.org/) -->

<svg
   xmlns:dc="http://purl.org/dc/elements/1.1/"
   xmlns:cc="http://creativecommons.org/ns#"
   xmlns:rdf="http://www.w3.org/1999/02/22-rdf-syntax-ns#"
   xmlns:svg="http://www.w3.org/2000/svg"
   xmlns="http://www.w3.org/2000/svg"
   xmlns:sodipodi="http://sodipodi.sourceforge.net/DTD/sodipodi-0.dtd"
   xmlns:inkscape="http://www.inkscape.org/namespaces/inkscape"
   width="100"
   height="100"
   id="svg9131"
   sodipodi:version="0.32"
   inkscape:version="0.92.1 r15371"
   version="1.0"
   sodipodi:docname="advanced_colors.svg">
  <sodipodi:namedview
     id="base"
     pagecolor="#ffffff"
     bordercolor="#666666"
     borderopacity="1.0"
     inkscape:pageopacity="0.0"
     inkscape:pageshadow="2"
     inkscape:zoom="6.305571"
     inkscape:cx="-21.473967"
     inkscape:cy="29.117178"
     inkscape:document-units="px"
     inkscape:current-layer="layer1"
     height="100px"
     width="100px"
     inkscape:window-width="1884"
     inkscape:window-height="1051"
     inkscape:window-x="0"
     inkscape:window-y="0"
     showgrid="false"
     inkscape:snap-global="false"
     inkscape:window-maximized="1" />
  <defs
     id="defs9133" />
  <metadata
     id="metadata9136">
    <rdf:RDF>
      <cc:Work
         rdf:about="">
        <dc:format>image/svg+xml</dc:format>
        <dc:type
           rdf:resource="http://purl.org/dc/dcmitype/StillImage" />
        <dc:title></dc:title>
        <dc:date>2015</dc:date>
        <dc:creator>
          <cc:Agent>
            <dc:title>Timothée Giet</dc:title>
          </cc:Agent>
        </dc:creator>
        <cc:license
           rdf:resource="http://creativecommons.org/licenses/by-sa/4.0/" />
      </cc:Work>
      <cc:License
         rdf:about="http://creativecommons.org/licenses/by-sa/4.0/">
        <cc:permits
           rdf:resource="http://creativecommons.org/ns#Reproduction" />
        <cc:permits
           rdf:resource="http://creativecommons.org/ns#Distribution" />
        <cc:requires
           rdf:resource="http://creativecommons.org/ns#Notice" />
        <cc:requires
           rdf:resource="http://creativecommons.org/ns#Attribution" />
        <cc:permits
           rdf:resource="http://creativecommons.org/ns#DerivativeWorks" />
        <cc:requires
           rdf:resource="http://creativecommons.org/ns#ShareAlike" />
      </cc:License>
    </rdf:RDF>
  </metadata>
  <g
     style="display:inline"
     id="layer1"
     inkscape:groupmode="layer"
     inkscape:label="Calque 1">
    <path
       sodipodi:nodetypes="cscc"
       inkscape:connector-curvature="0"
       id="path4242-5"
       d="m 31.024859,58.529656 c 0,0 -1.835036,-6.800444 1.178462,-8.287528 3.013497,-1.487083 5.504764,2.63865 5.504764,2.63865 0,0 -6.104132,1.668276 -6.683226,5.648878 z"
       style="display:inline;fill:#589a32;fill-opacity:1;fill-rule:evenodd;stroke:none;stroke-width:1px;stroke-linecap:butt;stroke-linejoin:miter;stroke-opacity:1" />
    <path
       sodipodi:nodetypes="cscc"
       inkscape:connector-curvature="0"
       id="path4242-7-3"
       d="m 31.449255,55.225541 c 0,0 -1.270083,-2.439143 1.373433,-3.74365 2.643516,-1.304508 3.220059,0.645797 3.220059,0.645797 0,0 -3.436014,0.93735 -4.593492,3.097853 z"
       style="display:inline;fill:#98e96a;fill-opacity:1;fill-rule:evenodd;stroke:none;stroke-width:1px;stroke-linecap:butt;stroke-linejoin:miter;stroke-opacity:1" />
    <path
       sodipodi:nodetypes="scss"
       inkscape:connector-curvature="0"
       id="path4320-6"
       d="m 49.383591,45.987989 c 1.923886,-1.721517 1.42731,-0.158591 1.42731,-0.158591 C 35.091075,62.363713 50.163939,96.056179 49.819715,96.379935 48.885011,97.25906 34.241676,59.537164 49.383591,45.987989 Z"
       style="display:inline;fill:#474747;fill-opacity:1;fill-rule:evenodd;stroke:none;stroke-width:1px;stroke-linecap:butt;stroke-linejoin:miter;stroke-opacity:1" />
    <path
       sodipodi:nodetypes="scss"
       inkscape:connector-curvature="0"
       id="path4320-2"
       d="m 31.971629,50.520365 c 0.275212,-2.566946 1.390502,-0.358982 1.390502,-0.358982 -1.650161,5.403748 17.028913,46.208529 16.733971,46.57774 -0.800887,1.002553 -18.63792,-41.429761 -18.124473,-46.218758 z"
       style="display:inline;fill:#474747;fill-opacity:1;fill-rule:evenodd;stroke:none;stroke-width:1px;stroke-linecap:butt;stroke-linejoin:miter;stroke-opacity:1" />
    <path
       sodipodi:nodetypes="sssss"
       inkscape:connector-curvature="0"
       id="path4240-5"
       d="m 23.589925,19.683445 c -8.855199,2.484844 -11.967226,12.253498 -8.250567,20.08359 3.716659,7.830091 13.978962,13.935256 17.698633,12.682702 3.719671,-1.252554 9.070436,-12.544173 7.921542,-20.990408 -1.148895,-8.446236 -8.51441,-14.260728 -17.369608,-11.775884 z"
       style="display:inline;fill:#589a32;fill-opacity:1;fill-rule:evenodd;stroke:none;stroke-width:1px;stroke-linecap:butt;stroke-linejoin:miter;stroke-opacity:1" />
    <path
       sodipodi:nodetypes="sssss"
       inkscape:connector-curvature="0"
       id="path4240-3-6"
       d="m 23.64121,20.957228 c -7.947382,2.230103 -10.341941,11.407434 -7.006307,18.4348 3.335635,7.027367 12.384004,11.631616 15.722341,10.507471 C 35.695581,48.775354 40.659662,39.516356 39.62855,31.936011 38.597437,24.355667 31.588591,18.727125 23.64121,20.957228 Z"
       style="display:inline;fill:#98e96a;fill-opacity:1;fill-rule:evenodd;stroke:none;stroke-width:1px;stroke-linecap:butt;stroke-linejoin:miter;stroke-opacity:1" />
    <path
       sodipodi:nodetypes="cscc"
       inkscape:connector-curvature="0"
       id="path4242"
       d="m 48.932032,73.29522 c 0,0 -0.567449,-7.020784 2.666272,-7.934916 3.23372,-0.914132 4.932972,3.595927 4.932972,3.595927 0,0 -6.305755,0.530127 -7.599244,4.338989 z"
       style="display:inline;fill:#b78c26;fill-opacity:1;fill-rule:evenodd;stroke:none;stroke-width:1px;stroke-linecap:butt;stroke-linejoin:miter;stroke-opacity:1" />
    <path
       sodipodi:nodetypes="cscc"
       inkscape:connector-curvature="0"
       id="path4242-7"
       d="m 49.950354,70.123421 c 0,0 -0.805225,-2.629476 2.031476,-3.431376 2.836701,-0.8019 3.048873,1.22074 3.048873,1.22074 0,0 -3.549193,0.296715 -5.080349,2.210636 z"
       style="display:inline;fill:#f7ce6c;fill-opacity:1;fill-rule:evenodd;stroke:none;stroke-width:1px;stroke-linecap:butt;stroke-linejoin:miter;stroke-opacity:1" />
    <path
       sodipodi:nodetypes="scss"
       inkscape:connector-curvature="0"
       id="path4320"
       d="m 52.334674,66.255599 c -0.635708,-2.502165 -1.42731,-0.15859 -1.42731,-0.15859 2.398273,5.115839 -9.819972,30.87881 -9.475748,31.202566 0.934704,0.879125 12.08906,-26.375837 10.903058,-31.043976 z"
       style="fill:#474747;fill-opacity:1;fill-rule:evenodd;stroke:none;stroke-width:1px;stroke-linecap:butt;stroke-linejoin:miter;stroke-opacity:1" />
    <path
       sodipodi:nodetypes="cscc"
       inkscape:connector-curvature="0"
       id="path4242-5-9-9"
       d="m 45.147419,49.563846 c 0,0 0.697037,-7.009104 4.042096,-7.330304 3.345059,-0.321199 4.210512,4.420011 4.210512,4.420011 0,0 -6.298925,-0.605908 -8.252608,2.910293 z"
       style="display:inline;fill:#d64b50;fill-opacity:1;fill-rule:evenodd;stroke:none;stroke-width:1px;stroke-linecap:butt;stroke-linejoin:miter;stroke-opacity:1" />
    <path
       sodipodi:nodetypes="cscc"
       inkscape:connector-curvature="0"
       id="path4242-7-3-1-3"
       d="m 46.71646,46.625241 c 0,0 -0.322088,-2.731078 2.612281,-3.012843 2.93437,-0.281766 2.781467,1.746217 2.781467,1.746217 0,0 -3.545051,-0.342675 -5.393748,1.266626 z"
       style="display:inline;fill:#f8afb1;fill-opacity:1;fill-rule:evenodd;stroke:none;stroke-width:1px;stroke-linecap:butt;stroke-linejoin:miter;stroke-opacity:1" />
    <path
       sodipodi:nodetypes="sssss"
       inkscape:connector-curvature="0"
       id="path4240-5-2-6"
       d="M 51.978221,10.606863 C 42.817486,9.788365 36.442126,17.817443 37.139004,26.456788 37.835882,35.09613 45.264574,44.445057 49.18666,44.59367 53.108747,44.742283 62.117536,36.083584 64.039982,27.779185 65.962428,19.474784 61.138954,11.42536 51.978221,10.606863 Z"
       style="display:inline;fill:#d64b50;fill-opacity:1;fill-rule:evenodd;stroke:none;stroke-width:1px;stroke-linecap:butt;stroke-linejoin:miter;stroke-opacity:1" />
    <path
       sodipodi:nodetypes="cscc"
       inkscape:connector-curvature="0"
       id="path4242-5-9"
       d="m 60.677209,57.493358 c 0,0 2.588109,-6.550961 5.893415,-5.944708 3.305304,0.606253 2.840556,5.403345 2.840556,5.403345 0,0 -5.892811,-2.306154 -8.733971,0.541363 z"
       style="display:inline;fill:#3e97c0;fill-opacity:1;fill-rule:evenodd;stroke:none;stroke-width:1px;stroke-linecap:butt;stroke-linejoin:miter;stroke-opacity:1" />
    <path
       sodipodi:nodetypes="cscc"
       inkscape:connector-curvature="0"
       id="path4242-7-3-1"
       d="m 62.990375,55.096161 c 0,0 0.437415,-2.714994 3.336912,-2.183174 2.899497,0.531819 2.197579,2.440589 2.197579,2.440589 0,0 -3.316033,-1.299514 -5.534491,-0.257415 z"
       style="display:inline;fill:#96d2ef;fill-opacity:1;fill-rule:evenodd;stroke:none;stroke-width:1px;stroke-linecap:butt;stroke-linejoin:miter;stroke-opacity:1" />
    <path
       sodipodi:nodetypes="scss"
       inkscape:connector-curvature="0"
       id="path4320-2-0"
       d="M 67.217031,51.758477 C 66.941819,49.191531 65.826529,51.399495 65.826529,51.399495 67.47669,56.803243 40.392349,97.766614 40.687291,98.13583 41.488178,99.13838 67.730478,56.547474 67.217031,51.758477 Z"
       style="display:inline;fill:#474747;fill-opacity:1;fill-rule:evenodd;stroke:none;stroke-width:1px;stroke-linecap:butt;stroke-linejoin:miter;stroke-opacity:1" />
    <path
       sodipodi:nodetypes="sssss"
       inkscape:connector-curvature="0"
       id="path4240-3-6-7-0"
       d="m 51.57425,11.815978 c -8.221595,-0.734587 -13.716368,6.996183 -13.090932,14.749838 0.625436,7.753655 7.451666,15.268619 10.971666,15.401996 3.520002,0.133377 11.446117,-6.762118 13.171479,-14.215167 1.72536,-7.45305 -2.830619,-15.202081 -11.052213,-15.936667 z"
       style="display:inline;fill:#f8afb1;fill-opacity:1;fill-rule:evenodd;stroke:none;stroke-width:1px;stroke-linecap:butt;stroke-linejoin:miter;stroke-opacity:1" />
    <path
       sodipodi:nodetypes="sssss"
       inkscape:connector-curvature="0"
       id="path4240-5-2"
       d="m 77.905881,21.891684 c -8.587264,-3.293615 -16.916098,2.684832 -18.609506,11.185201 -1.693408,8.500367 2.894003,19.525047 6.625779,20.74106 3.731777,1.216013 14.765823,-4.647534 18.886974,-12.109099 4.121151,-7.461567 1.684016,-16.523548 -6.903247,-19.817162 z"
       style="display:inline;fill:#3e97c0;fill-opacity:1;fill-rule:evenodd;stroke:none;stroke-width:1px;stroke-linecap:butt;stroke-linejoin:miter;stroke-opacity:1" />
    <path
       sodipodi:nodetypes="sssss"
       inkscape:connector-curvature="0"
       id="path4240-3-6-7"
       d="m 77.186514,22.94414 c -7.706915,-2.95596 -15.107145,2.976486 -16.626948,10.605413 -1.519803,7.628928 2.989899,16.724789 6.339101,17.816137 3.349202,1.091349 12.859477,-3.372485 16.558137,-10.069106 3.698658,-6.696622 1.436624,-15.396485 -6.27029,-18.352444 z"
       style="display:inline;fill:#96d2ef;fill-opacity:1;fill-rule:evenodd;stroke:none;stroke-width:1px;stroke-linecap:butt;stroke-linejoin:miter;stroke-opacity:1" />
    <path
       sodipodi:nodetypes="sssss"
       inkscape:connector-curvature="0"
       id="path4240"
       d="m 48.687106,33.744665 c -9.159458,0.832665 -13.99645,9.87229 -11.766057,18.247804 2.230393,8.375513 11.210992,16.245504 15.096445,15.690439 C 55.902947,67.127843 63.218352,56.997878 63.624961,48.483565 64.03157,39.969252 57.846563,32.912 48.687106,33.744665 Z"
       style="fill:#b78c26;fill-opacity:1;fill-rule:evenodd;stroke:none;stroke-width:1px;stroke-linecap:butt;stroke-linejoin:miter;stroke-opacity:1" />
    <path
       sodipodi:nodetypes="sssss"
       inkscape:connector-curvature="0"
       id="path4240-3"
       d="M 48.505839,35.006527 C 40.28539,35.753829 36.261456,44.3425 38.263194,51.859373 40.264932,59.376246 48.324858,65.54955 51.811982,65.051389 55.299106,64.553228 61.864551,56.351638 62.229475,48.710195 62.594399,41.068752 56.726287,34.259225 48.505839,35.006527 Z"
       style="display:inline;fill:#f7ce6c;fill-opacity:1;fill-rule:evenodd;stroke:none;stroke-width:1px;stroke-linecap:butt;stroke-linejoin:miter;stroke-opacity:1" />
  </g>
</svg>

<!--Created with Inkscape (http://www.inkscape.org/)--><svg xmlns:dc="http://purl.org/dc/elements/1.1/" xmlns:cc="http://creativecommons.org/ns#" xmlns:rdf="http://www.w3.org/1999/02/22-rdf-syntax-ns#" xmlns="http://www.w3.org/2000/svg" xmlns:sodipodi="http://sodipodi.sourceforge.net/DTD/sodipodi-0.dtd" xmlns:inkscape="http://www.inkscape.org/namespaces/inkscape" width="100" height="100" sodipodi:version="0.32" inkscape:version="0.92.1 r15371" version="1.0" sodipodi:docname="advanced_colors.svg"><sodipodi:namedview pagecolor="#ffffff" bordercolor="#666666" borderopacity="1.0" inkscape:pageopacity="0.0" inkscape:pageshadow="2" inkscape:zoom="6.305571" inkscape:cx="-21.473967" inkscape:cy="29.117178" inkscape:document-units="px" inkscape:current-layer="layer1" height="100px" width="100px" inkscape:window-width="1884" inkscape:window-height="1051" inkscape:window-x="0" inkscape:window-y="0" showgrid="false" inkscape:snap-global="false" inkscape:window-maximized="1"/><metadata><rdf:RDF><cc:Work><dc:format>image/svg+xml</dc:format><dc:type rdf:resource="http://purl.org/dc/dcmitype/StillImage"/><dc:title/><dc:date>2015</dc:date><dc:creator><cc:Agent><dc:title>Timothée Giet</dc:title></cc:Agent></dc:creator><cc:license rdf:resource="http://creativecommons.org/licenses/by-sa/4.0/"/></cc:Work><cc:License rdf:about="http://creativecommons.org/licenses/by-sa/4.0/"><cc:permits rdf:resource="http://creativecommons.org/ns#Reproduction"/><cc:permits rdf:resource="http://creativecommons.org/ns#Distribution"/><cc:requires rdf:resource="http://creativecommons.org/ns#Notice"/><cc:requires rdf:resource="http://creativecommons.org/ns#Attribution"/><cc:permits rdf:resource="http://creativecommons.org/ns#DerivativeWorks"/><cc:requires rdf:resource="http://creativecommons.org/ns#ShareAlike"/></cc:License></rdf:RDF></metadata><g style="display:inline" inkscape:groupmode="layer" inkscape:label="Calque 1"><path sodipodi:nodetypes="cscc" inkscape:connector-curvature="0" d="M31.025 58.53s-1.835-6.8 1.178-8.288c3.014-1.487 5.505 2.639 5.505 2.639s-6.104 1.668-6.683 5.649z" style="display:inline;fill:#589a32;fill-opacity:1;fill-rule:evenodd;stroke:none;stroke-width:1px;stroke-linecap:butt;stroke-linejoin:miter;stroke-opacity:1"/><path sodipodi:nodetypes="cscc" inkscape:connector-curvature="0" d="M31.45 55.226s-1.27-2.44 1.373-3.744c2.643-1.305 3.22.646 3.22.646s-3.436.937-4.594 3.098z" style="display:inline;fill:#98e96a;fill-opacity:1;fill-rule:evenodd;stroke:none;stroke-width:1px;stroke-linecap:butt;stroke-linejoin:miter;stroke-opacity:1"/><path sodipodi:nodetypes="scss" inkscape:connector-curvature="0" d="M49.384 45.988c1.923-1.722 1.427-.159 1.427-.159-15.72 16.535-.647 50.227-.991 50.55-.935.88-15.578-36.842-.436-50.391z" style="display:inline;fill:#474747;fill-opacity:1;fill-rule:evenodd;stroke:none;stroke-width:1px;stroke-linecap:butt;stroke-linejoin:miter;stroke-opacity:1"/><path sodipodi:nodetypes="scss" inkscape:connector-curvature="0" d="M31.972 50.52c.275-2.567 1.39-.359 1.39-.359-1.65 5.404 17.029 46.209 16.734 46.578-.8 1.003-18.638-41.43-18.124-46.219z" style="display:inline;fill:#474747;fill-opacity:1;fill-rule:evenodd;stroke:none;stroke-width:1px;stroke-linecap:butt;stroke-linejoin:miter;stroke-opacity:1"/><path sodipodi:nodetypes="sssss" inkscape:connector-curvature="0" d="M23.59 19.683c-8.855 2.485-11.967 12.254-8.25 20.084 3.716 7.83 13.978 13.935 17.698 12.683 3.72-1.253 9.07-12.544 7.922-20.99-1.15-8.447-8.515-14.261-17.37-11.777z" style="display:inline;fill:#589a32;fill-opacity:1;fill-rule:evenodd;stroke:none;stroke-width:1px;stroke-linecap:butt;stroke-linejoin:miter;stroke-opacity:1"/><path sodipodi:nodetypes="sssss" inkscape:connector-curvature="0" d="M23.641 20.957c-7.947 2.23-10.342 11.408-7.006 18.435 3.336 7.027 12.384 11.632 15.722 10.507 3.339-1.124 8.303-10.383 7.272-17.963-1.032-7.58-8.04-13.209-15.988-10.979z" style="display:inline;fill:#98e96a;fill-opacity:1;fill-rule:evenodd;stroke:none;stroke-width:1px;stroke-linecap:butt;stroke-linejoin:miter;stroke-opacity:1"/><path sodipodi:nodetypes="cscc" inkscape:connector-curvature="0" d="M48.932 73.295s-.567-7.02 2.666-7.935c3.234-.914 4.933 3.596 4.933 3.596s-6.305.53-7.599 4.34z" style="display:inline;fill:#b78c26;fill-opacity:1;fill-rule:evenodd;stroke:none;stroke-width:1px;stroke-linecap:butt;stroke-linejoin:miter;stroke-opacity:1"/><path sodipodi:nodetypes="cscc" inkscape:connector-curvature="0" d="M49.95 70.123s-.805-2.63 2.032-3.431c2.837-.802 3.049 1.22 3.049 1.22s-3.55.297-5.08 2.211z" style="display:inline;fill:#f7ce6c;fill-opacity:1;fill-rule:evenodd;stroke:none;stroke-width:1px;stroke-linecap:butt;stroke-linejoin:miter;stroke-opacity:1"/><path sodipodi:nodetypes="scss" inkscape:connector-curvature="0" d="M52.335 66.256c-.636-2.503-1.428-.159-1.428-.159 2.399 5.116-9.82 30.879-9.475 31.203.934.879 12.089-26.376 10.903-31.044z" style="fill:#474747;fill-opacity:1;fill-rule:evenodd;stroke:none;stroke-width:1px;stroke-linecap:butt;stroke-linejoin:miter;stroke-opacity:1"/><path sodipodi:nodetypes="cscc" inkscape:connector-curvature="0" d="M45.147 49.564s.697-7.01 4.043-7.33c3.345-.322 4.21 4.42 4.21 4.42s-6.299-.606-8.253 2.91z" style="display:inline;fill:#d64b50;fill-opacity:1;fill-rule:evenodd;stroke:none;stroke-width:1px;stroke-linecap:butt;stroke-linejoin:miter;stroke-opacity:1"/><path sodipodi:nodetypes="cscc" inkscape:connector-curvature="0" d="M46.716 46.625s-.322-2.73 2.613-3.013c2.934-.281 2.781 1.747 2.781 1.747s-3.545-.343-5.394 1.266z" style="display:inline;fill:#f8afb1;fill-opacity:1;fill-rule:evenodd;stroke:none;stroke-width:1px;stroke-linecap:butt;stroke-linejoin:miter;stroke-opacity:1"/><path sodipodi:nodetypes="sssss" inkscape:connector-curvature="0" d="M51.978 10.607c-9.16-.819-15.536 7.21-14.839 15.85.697 8.64 8.126 17.988 12.048 18.137 3.922.148 12.93-8.51 14.853-16.815 1.922-8.304-2.901-16.354-12.062-17.172z" style="display:inline;fill:#d64b50;fill-opacity:1;fill-rule:evenodd;stroke:none;stroke-width:1px;stroke-linecap:butt;stroke-linejoin:miter;stroke-opacity:1"/><path sodipodi:nodetypes="cscc" inkscape:connector-curvature="0" d="M60.677 57.493s2.588-6.55 5.894-5.944c3.305.606 2.84 5.403 2.84 5.403s-5.893-2.306-8.734.541z" style="display:inline;fill:#3e97c0;fill-opacity:1;fill-rule:evenodd;stroke:none;stroke-width:1px;stroke-linecap:butt;stroke-linejoin:miter;stroke-opacity:1"/><path sodipodi:nodetypes="cscc" inkscape:connector-curvature="0" d="M62.99 55.096s.438-2.715 3.337-2.183c2.9.532 2.198 2.44 2.198 2.44s-3.316-1.299-5.535-.257z" style="display:inline;fill:#96d2ef;fill-opacity:1;fill-rule:evenodd;stroke:none;stroke-width:1px;stroke-linecap:butt;stroke-linejoin:miter;stroke-opacity:1"/><path sodipodi:nodetypes="scss" inkscape:connector-curvature="0" d="M67.217 51.758c-.275-2.566-1.39-.359-1.39-.359 1.65 5.404-25.435 46.368-25.14 46.737.801 1.002 27.043-41.589 26.53-46.378z" style="display:inline;fill:#474747;fill-opacity:1;fill-rule:evenodd;stroke:none;stroke-width:1px;stroke-linecap:butt;stroke-linejoin:miter;stroke-opacity:1"/><path sodipodi:nodetypes="sssss" inkscape:connector-curvature="0" d="M51.574 11.816c-8.221-.735-13.716 6.996-13.09 14.75.625 7.753 7.451 15.268 10.971 15.402 3.52.133 11.446-6.762 13.171-14.215 1.726-7.453-2.83-15.202-11.052-15.937z" style="display:inline;fill:#f8afb1;fill-opacity:1;fill-rule:evenodd;stroke:none;stroke-width:1px;stroke-linecap:butt;stroke-linejoin:miter;stroke-opacity:1"/><path sodipodi:nodetypes="sssss" inkscape:connector-curvature="0" d="M77.906 21.892c-8.587-3.294-16.916 2.685-18.61 11.185-1.693 8.5 2.894 19.525 6.626 20.74 3.732 1.217 14.766-4.647 18.887-12.108 4.121-7.462 1.684-16.524-6.903-19.817z" style="display:inline;fill:#3e97c0;fill-opacity:1;fill-rule:evenodd;stroke:none;stroke-width:1px;stroke-linecap:butt;stroke-linejoin:miter;stroke-opacity:1"/><path sodipodi:nodetypes="sssss" inkscape:connector-curvature="0" d="M77.187 22.944C69.48 19.988 62.079 25.921 60.56 33.55c-1.52 7.628 2.99 16.724 6.339 17.816 3.349 1.091 12.86-3.373 16.558-10.07 3.698-6.696 1.436-15.396-6.27-18.352z" style="display:inline;fill:#96d2ef;fill-opacity:1;fill-rule:evenodd;stroke:none;stroke-width:1px;stroke-linecap:butt;stroke-linejoin:miter;stroke-opacity:1"/><path sodipodi:nodetypes="sssss" inkscape:connector-curvature="0" d="M48.687 33.745c-9.16.832-13.996 9.872-11.766 18.247 2.23 8.376 11.211 16.246 15.096 15.69 3.886-.554 11.201-10.684 11.608-19.198.407-8.515-5.778-15.572-14.938-14.74z" style="fill:#b78c26;fill-opacity:1;fill-rule:evenodd;stroke:none;stroke-width:1px;stroke-linecap:butt;stroke-linejoin:miter;stroke-opacity:1"/><path sodipodi:nodetypes="sssss" inkscape:connector-curvature="0" d="M48.506 35.007c-8.22.747-12.245 9.336-10.243 16.852 2.002 7.517 10.062 13.69 13.549 13.192 3.487-.498 10.053-8.7 10.417-16.34.365-7.642-5.503-14.452-13.723-13.704z" style="display:inline;fill:#f7ce6c;fill-opacity:1;fill-rule:evenodd;stroke:none;stroke-width:1px;stroke-linecap:butt;stroke-linejoin:miter;stroke-opacity:1"/></g></svg>
